packages/foundations/assets/icons/functional/images/environment/moon_32.svg

<svg width="32" height="32" viewBox="0 0 32 32" fill="none" xmlns="http://www.w3.org/2000/svg">
<g clip-path="url(#clip0_185_824)">
<path fill-rule="evenodd" clip-rule="evenodd" d="M16.519 4.43211C16.7479 3.92949 16.526 3.33648 16.0234 3.10758C15.8698 3.03764 15.701 3.0077 15.5328 3.02056C8.78515 3.53623 3.53625 9.17647 3.53625 15.9824C3.53625 23.1621 9.35655 28.9824 16.5363 28.9824C21.6829 28.9824 26.2806 25.9637 28.3738 21.3611C28.6025 20.8583 28.3803 20.2654 27.8775 20.0368C27.7241 19.967 27.5554 19.9371 27.3873 19.95C27.1053 19.9715 26.8215 19.9824 26.5363 19.9824C20.4611 19.9824 15.5363 15.0575 15.5363 8.98236C15.5363 7.39022 15.8741 5.84831 16.519 4.43211ZM14.0783 5.25736C14.0386 5.38911 13.4559 7.24362 13.5398 9.28922C13.6957 16.0212 18.9961 21.5484 25.7713 21.9584C23.621 25.1713 20.2694 26.9824 16.5363 26.9824C10.4611 26.9824 5.53625 22.0575 5.53625 15.9824C5.53625 10.8095 8.85146 6.75383 14.0783 5.25736Z" fill="#1A1C1F"/>
</g>
<defs>
<clipPath id="clip0_185_824">
<rect width="32" height="32" fill="white"/>
</clipPath>
</defs>
</svg>

<svg xmlns="http://www.w3.org/2000/svg" width="32" height="32" fill="none"><g clip-path="url(#a)"><path fill="#1A1C1F" fill-rule="evenodd" d="M16.519 4.432a1 1 0 0 0-.986-1.411C8.785 3.536 3.536 9.176 3.536 15.982c0 7.18 5.82 13 13 13 5.147 0 9.745-3.018 11.838-7.62a1 1 0 0 0-.987-1.412q-.424.032-.85.032c-6.076 0-11-4.924-11-11 0-1.592.337-3.134.982-4.55m-2.44.825c-.04.132-.623 1.987-.54 4.032.157 6.732 5.457 12.26 12.232 12.67-2.15 3.212-5.502 5.023-9.235 5.023-6.075 0-11-4.924-11-11 0-5.172 3.315-9.228 8.542-10.725" clip-rule="evenodd"/></g><defs><clipPath id="a"><path fill="#fff" d="M0 0h32v32H0z"/></clipPath></defs></svg>
